!!!!SEGMENT: pl-kk--kk-i-7--094_anonim--dignare-me-laudare-te.krn
!!!cenid: 16xx:933
!!!COM: Anonim
!!!COM-rismID: pe30004985
!!!CDT:
!!!CNT:
!!!OTL: Dignare me laudare te
!!!PDT:
!!!AGN: Sacred
!!!SMS-siglum: PL-Kk
!!!SMS-shelfmark: Kk.I.7
!!!SMS-shelfwork: 094 W
!!!SMS-variant:
!!!SMS-altvar:
!!!NIFC-rismSourceID: 300258171
!!!NIFC-islandoraID: pl-kk:1956
!!!URL-pdf-islandora: https://repozytorium.nifc.pl/islandora/object/pl-kk%3A1956/datastream/PDF/view
!!!URL-scan: https://polish.musicsources.pl/pl/lokalizacje/galeria/rekopisy/6140 @EN{Scan on Polish Music Herritage in Open Access Website} @PL{Skany w portalu Dziedzictwo Muzyki Polskiej w otwartym dostępie}
!!!ONB-nifc: UWAGA: C (inclp., skan 0074, s.35), A (brak), T (0238, s.32-33), B (0325, s.33). Następny utwór: Regina caeli
!!!AIN: 1 alto 1 bass 1 soprn 1 tenor
!!!key:
**kern	**text	**kern	**text	**kern	**kern	**text
*part4	*part4	*part3	*part3	*part2	*part1	*part1
*staff4	*staff4	*staff3	*staff3	*staff2	*staff1	*staff1
*Ibass	*	*Itenor	*	*Ialto	*Isoprn	*
*I"BASSVS.	*	*I"TENOR.	*	*I"ALTVS.	*I"CANTVS.	*
*I'B	*	*I'T	*	*I'A	*I'S	*
*clefF4	*	*clefC4	*	*clefC3	*clefC1	*
*k[]	*	*k[]	*	*k[]	*k[]	*
*d:	*	*d:	*	*d:	*d:	*
*M2/1	*	*M2/1	*	*M2/1	*M2/1	*
*met(C|)	*	*met(C|)	*	*met(C|)	*met(C|)	*
=1-	=1-	=1-	=1-	=1-	=1-	=1-
!LO:TX:a:t=De B.V.Maria	!	!LO:TX:a:t=De B.V.Maria	!	!LO:TX:a:t=P:problem=brak partii w żródle	!LO:TX:a:t=P:problem=głos niekompletny, brak kartki w źródle	!
!LO:TX:a:B:t=II.	!	!LO:TX:a:B:t=II.	!	!	!	!
00r	.	0r	.	0ryy	0ryy	.
=2-	=2-	=2-	=2-	=2-	=2-	=2-
.	.	1d	Dig-	0ryy	0ryy	.
*	*	*2\right	*	*	*	*
.	.	2d\	-na-	.	.	.
!	!	!LO:TX:t=P:problem=kreska pseudotaktowa	!	!	!	!
.	.	2d\	-re	.	.	.
=3-	=3-	=3-	=3-	=3-	=3-	=3-
!LO:TX:t=P:problem=kreska pseudotaktowa	!	!	!	!	!	!
00r	.	2c\	me	0ryy	0ryy	.
.	.	4A/	lau-	.	.	.
!	!	!LO:TX:t=P:problem=kreska pseudotaktowa	!	!	!	!
.	.	4B/	.	.	.	.
.	.	(4c\	-da-	.	.	.
.	.	4B\)	.	.	.	.
.	.	(4c\	-re	.	.	.
!	!	!LO:TX:t=P:problem=kreska pseudotaktowa	!	!	!	!
.	.	4A\)	.	.	.	.
=4-	=4-	=4-	=4-	=4-	=4-	=4-
.	.	2Bn\	Te	0ryy	0ryy	.
!	!	!LO:TX:t=P:problem=kreska pseudotaktowa	!	!	!	!
.	.	[<2e\	lau-	.	.	.
.	.	2e\]	.	.	.	.
.	.	2d\	-da-	.	.	.
=5-	=5-	=5-	=5-	=5-	=5-	=5-
1A	Dig-	2c#X\	.	0ryy	0ryy	.
!	!	!LO:TX:t=P:problem=kreska pseudotaktowa	!	!	!	!
.	.	[2d\	.	.	.	.
*2\right	*	*	*	*	*	*
2A\	-na-	2d\]	.	.	.	.
!LO:TX:t=P:problem=kreska pseudotaktowa	!	!LO:TX:t=P:problem=kreska pseudotaktowa	!	!	!	!
2A\	-re	2c#X\	-re	.	.	.
=6-	=6-	=6-	=6-	=6-	=6-	=6-
!	!	!LO:TX:t=P:problem=kreska pseudotaktowa	!	!	!	!
2F\	me	1d	Te	0ryy	0ryy	.
(4D/	lau-	.	.	.	.	.
!LO:TX:t=P:problem=kreska pseudotaktowa	!	!	!	!	!	!
4E/)	.	.	.	.	.	.
(4F\	-da-	2r	.	.	.	.
4E\)	.	.	.	.	.	.
!	!	!LO:TX:t=P:problem=kreska pseudotaktowa	!	!	!	!
(4F\	-re	2f\	lau-	.	.	.
!LO:TX:t=P:problem=kreska pseudotaktowa	!	!	!	!	!	!
4D\)	.	.	.	.	.	.
=7-	=7-	=7-	=7-	=7-	=7-	=7-
2E\	Te	2e\	-da-	0ryy	0ryy	.
2.F\	lau-	2cny\	-re	.	.	.
*	*	*custos:A	*	*	*	*
!	!	!LO:TX:t=P:problem=kreska pseudotaktowa	!	!	!	!
.	.	1A	Te	.	.	.
4G\	.	.	.	.	.	.
1A\	-da-	.	.	.	.	.
!	!	!LO:LB:g=original	!	!	!	!
=8-	=8-	=8-	=8-	=8-	=8-	=8-
!	!	!LO:TX:t=P:problem=kreska pseudotaktowa	!	!	!	!
.	.	1re	.	0ryy	0ryy	.
!LO:TX:t=P:problem=kreska pseudotaktowa	!	!	!	!	!	!
[<2G\	-re	.	.	.	.	.
2G]	.	4r	.	.	.	.
.	.	4A/	Vir-	.	.	.
1F\	Te	4d\	-go	.	.	.
!	!	!LO:TX:t=P:problem=kreska pseudotaktowa	!	!	!	!
.	.	4c\	sa-	.	.	.
=9-	=9-	=9-	=9-	=9-	=9-	=9-
.	.	4B-X\	-cra-	0ryy	0ryy	.
.	.	4G/	.	.	.	.
!LO:TX:t=P:problem=kreska pseudotaktowa	!	!	!	!	!	!
[<2<E\	Vir-	4c\	.	.	.	.
!	!	!LO:TX:t=P:problem=kreska pseudotaktowa	!	!	!	!
.	.	4B-X\	.	.	.	.
2E]	.	4A/	.	.	.	.
.	.	4F/	.	.	.	.
!	!	!LO:TX:t=P:problem=kreska pseudotaktowa	!	!	!	!
1D\	-go	[<2B-X\	.	.	.	.
=10-	=10-	=10-	=10-	=10-	=10-	=10-
.	.	2B-]	.	0ryy	0ryy	.
!LO:TX:t=P:problem=kreska pseudotaktowa	!	!LO:TX:t=P:problem=kreska pseudotaktowa	!	!	!	!
2C#X/	sa-	[2A/	.	.	.	.
!	!	!LO:N:xstem:cue	!	!	!	!
2.D/	-cra-	4A]	.	.	.	.
.	.	4G/	.	.	.	.
.	.	4F/	.	.	.	.
!	!	!LO:TX:t=P:problem=kreska pseudotaktowa	!	!	!	!
4C#/	.	4E/	.	.	.	.
=11-	=11-	=11-	=11-	=11-	=11-	=11-
4BB-X/	.	2D,/	-ta	0ryy	0ryy	.
4AA/	.	.	.	.	.	.
!LO:TX:t=P:problem=kreska pseudotaktowa	!	!LO:TX:t=P:problem=kreska pseudotaktowa	!	!	!	!
2GG/	.	[<2d\	sa-	.	.	.
1AA	.	2d\]	.	.	.	.
!	!	!LO:TX:t=P:problem=kreska pseudotaktowa	!	!	!	!
.	.	2c#X\	.	.	.	.
=12-	=12-	=12-	=12-	=12-	=12-	=12-
*custos:AA	*	*	*	*	*	*
!LO:TX:t=P:problem=kreska pseudotaktowa	!	!	!	!	!	!
1BB-X	.	1d	-cra-	0ryy	0ryy	.
!LO:LB:g=original	!	!	!	!	!	!
2AA/	-ta	2c#X,\	-ta	.	.	.
!LO:TX:t=P:problem=kreska pseudotaktowa	!	!LO:TX:t=P:problem=kreska pseudotaktowa	!	!	!	!
2rAA	.	2A\	Dig-	.	.	.
=13-	=13-	=13-	=13-	=13-	=13-	=13-
00r	.	2A/	-na-	0ryy	0ryy	.
.	.	2A/	-re	.	.	.
.	.	2F/	me	.	.	.
.	.	4D/	lau-	.	.	.
!	!	!LO:TX:t=P:problem=kreska pseudotaktowa	!	!	!	!
.	.	4E/	.	.	.	.
=14-	=14-	=14-	=14-	=14-	=14-	=14-
.	.	(4F/	-da-	0ryy	0ryy	.
.	.	4E/)	.	.	.	.
.	.	(4F/	-re	.	.	.
!	!	!LO:TX:t=P:problem=kreska pseudotaktowa	!	!	!	!
.	.	4D/)	.	.	.	.
!	!	!LO:LB:g=original	!	!	!	!
.	.	2E/	Te	.	.	.
!	!	!LO:TX:t=P:problem=kreska pseudotaktowa	!	!	!	!
.	.	[2F/	lau-	.	.	.
=15-	=15-	=15-	=15-	=15-	=15-	=15-
!LO:TX:t=P:problem=kreska pseudotaktowa	!	!LO:N:xstem:cue	!	!	!	!
1rE	.	4F]	.	0ryy	0ryy	.
.	.	4G/	.	.	.	.
!	!	!LO:TX:t=P:problem=kreska pseudotaktowa	!	!	!	!
.	.	[<2A\	.	.	.	.
!LO:TX:t=P:problem=kreska pseudotaktowa	!	!LO:N:xstem:cue	!	!	!	!
1D	Dig-	4A\]	.	.	.	.
.	.	4G/	.	.	.	.
.	.	4F/	.	.	.	.
!	!	!LO:TX:t=P:problem=kreska pseudotaktowa	!	!	!	!
.	.	4E/	.	.	.	.
=16-	=16-	=16-	=16-	=16-	=16-	=16-
2D\	-na-	4D/	-da-	0ryy	0ryy	.
.	.	4E/	.	.	.	.
!LO:TX:t=P:problem=kreska pseudotaktowa	!	!	!	!	!	!
2D\	-re	4F/	.	.	.	.
!	!	!LO:TX:t=P:problem=kreska pseudotaktowa	!	!	!	!
.	.	4G/	.	.	.	.
!	!	!LO:TX:t=P:problem=kreska pseudotaktowa	!	!	!	!
2Cny/	me	[<1A	.	.	.	.
(4AA/	lau-	.	.	.	.	.
!LO:TX:t=P:problem=kreska pseudotaktowa	!	!	!	!	!	!
4BBn/)	.	.	.	.	.	.
=17-	=17-	=17-	=17-	=17-	=17-	=17-
(4C/	-da-	2A/]	.	0ryy	0ryy	.
4BB/)	.	.	.	.	.	.
!	!	!LO:TX:t=P:problem=kreska pseudotaktowa	!	!	!	!
(4C/	-re	2G/	-re	.	.	.
!LO:TX:t=P:problem=kreska pseudotaktowa	!	!	!	!	!	!
4AA/)	.	.	.	.	.	.
!	!	!LO:TX:t=P:problem=kreska pseudotaktowa	!	!	!	!
2BBn/	Te	1G	Te.	.	.	.
(4BB/	Vir-	.	.	.	.	.
!LO:TX:t=P:problem=kreska pseudotaktowa	!	!	!	!	!	!
4C/)	.	.	.	.	.	.
=18-	=18-	=18-	=18-	=18-	=18-	=18-
!	!	!LO:TX:t=P:problem=kreska pseudotaktowa	!	!	!	!
2D\	-go	1r	.	0ryy	0ryy	.
2D\	sa-	.	.	.	.	.
1E	-cra-	2r	.	.	.	.
!	!	!LO:TX:t=P:problem=kreska pseudotaktowa	!	!	!	!
.	.	2Bn\	Te	.	.	.
=19-	=19-	=19-	=19-	=19-	=19-	=19-
!LO:TX:t=P:problem=kreska pseudotaktowa	!	!	!	!	!	!
1F	.	2cny\	Vir-	0ryy	0ryy	.
.	.	4Bn\	-go	.	.	.
!	!	!LO:TX:t=P:problem=kreska pseudotaktowa	!	!	!	!
.	.	4A\	sa-	.	.	.
!LO:TX:t=P:problem=kreska pseudotaktowa	!	!	!	!	!	!
1E,	-ta	2B\	-cra-	.	.	.
!	!	!LO:TX:t=P:problem=kreska pseudotaktowa	!	!	!	!
.	.	2G#X/	.	.	.	.
=20-	=20-	=20-	=20-	=20-	=20-	=20-
00r	.	2A\	.	0ryy	0ryy	.
!	!	!LO:TX:t=P:problem=kreska pseudotaktowa	!	!	!	!
.	.	2B\	.	.	.	.
.	.	2c\	-ta.	.	.	.
!	!	!LO:TX:t=P:problem=kreska pseudotaktowa	!	!	!	!
.	.	2r	.	.	.	.
=21-	=21-	=21-	=21-	=21-	=21-	=21-
!	!	!LO:TX:t=P:problem=kreska pseudotaktowa	!	!	!	!
.	.	1r	.	0ryy	0ryy	.
.	.	1d	Dig-	.	.	.
=22-	=22-	=22-	=22-	=22-	=22-	=22-
!LO:TX:t=P:problem=kreska pseudotaktowa	!	!	!	!	!	!
0r	.	2d\	-na-	0ryy	0ryy	.
!	!	!LO:TX:t=P:problem=kreska pseudotaktowa	!	!	!	!
.	.	2d\	-re	.	.	.
!	!	!LO:LB:g=original	!	!	!	!
.	.	2c\	me	.	.	.
.	.	(4A\	lau-	.	.	.
!	!	!LO:TX:t=P:problem=kreska pseudotaktowa	!	!	!	!
.	.	4B\)	.	.	.	.
=23-	=23-	=23-	=23-	=23-	=23-	=23-
2r	.	(4c\	-da-	0ryy	0ryy	.
.	.	4B\	.	.	.	.
!LO:TX:t=P:problem=kreska pseudotaktowa	!	!	!	!	!	!
2A\	Te	4c\)	.	.	.	.
!	!	!LO:TX:t=P:problem=kreska pseudotaktowa	!	!	!	!
.	.	4A\	.	.	.	.
2B-X\	Vir-	2d\	.	.	.	.
!	!	!LO:TX:t=P:problem=kreska pseudotaktowa	!	!	!	!
4A\	-go	2d\	-re	.	.	.
!LO:TX:t=P:problem=kreska pseudotaktowa	!	!	!	!	!	!
4G\	sa-	.	.	.	.	.
=24-	=24-	=24-	=24-	=24-	=24-	=24-
2A\	-cra-	2c#X\	Te	0ryy	0ryy	.
!LO:TX:t=P:problem=kreska pseudotaktowa	!	!LO:TX:t=P:problem=kreska pseudotaktowa	!	!	!	!
2F\	.	2r	.	.	.	.
2G\	.	2r	.	.	.	.
!	!	!LO:TX:t=P:problem=kreska pseudotaktowa	!	!	!	!
2A\	.	2e\	Te	.	.	.
=25-	=25-	=25-	=25-	=25-	=25-	=25-
2D,/	-ta	2f\	Vir-	0ryy	0ryy	.
!LO:TX:t=P:problem=kreska pseudotaktowa	!	!	!	!	!	!
2D/	sa-	4e\	-go	.	.	.
!	!	!LO:TX:t=P:problem=kreska pseudotaktowa	!	!	!	!
.	.	4d\	sa-	.	.	.
0AA	-cra-	2e\	-cra-	.	.	.
.	.	2cny\	.	.	.	.
=26-	=26-	=26-	=26-	=26-	=26-	=26-
.	.	2d\	.	0ryy	0ryy	.
!	!	!LO:TX:t=P:problem=kreska pseudotaktowa	!	!	!	!
.	.	2e\	.	.	.	.
!LO:TX:t=P:problem=kreska pseudotaktowa	!	!	!	!	!	!
1D	-ta.	2A,/	-ta	.	.	.
.	.	2F/	lau-	.	.	.
!LO:LB:g=original	!	!	!	!	!	!
=27-	=27-	=27-	=27-	=27-	=27-	=27-
!LO:TX:t=P:problem=kreska pseudotaktowa	!	!	!	!	!	!
1r	.	1B-X	-da-	0ryy	0ryy	.
1A	Dig-	4A\	.	.	.	.
.	.	8B-X\L	.	.	.	.
.	.	8c\J	.	.	.	.
!	!	!LO:TX:t=P:problem=kreska pseudotaktowa	!	!	!	!
.	.	2d\	.	.	.	.
=28-	=28-	=28-	=28-	=28-	=28-	=28-
2A\	-na-	(4en\	.	0ryy	0ryy	.
.	.	4d\)	.	.	.	.
!LO:TX:t=P:problem=kreska pseudotaktowa	!	!	!	!	!	!
2A\	-re	(4e\	-re	.	.	.
.	.	4c\)	.	.	.	.
2F\	me	2f,\	Te	.	.	.
(4D\	lau-	(4F/	lau-	.	.	.
*	*	*custos:A	*	*	*	*
!LO:TX:t=P:problem=kreska pseudotaktowa	!	!LO:TX:t=P:problem=kreska pseudotaktowa	!	!	!	!
4E\)	.	4Gny/)	.	.	.	.
!	!	!LO:LB:g=original	!	!	!	!
=29-	=29-	=29-	=29-	=29-	=29-	=29-
4F\	-da-	2A/	-da-	0ryy	0ryy	.
4E\	.	.	.	.	.	.
4F\	.	2.d\	.	.	.	.
!LO:TX:t=P:problem=kreska pseudotaktowa	!	!	!	!	!	!
4D\	.	.	.	.	.	.
4G\	.	.	.	.	.	.
4A\	.	4c\	.	.	.	.
4B-X\	.	4B-X\	.	.	.	.
!LO:TX:t=P:problem=kreska pseudotaktowa	!	!LO:TX:t=P:problem=kreska pseudotaktowa	!	!	!	!
4A\	.	4c\	.	.	.	.
=30-	=30-	=30-	=30-	=30-	=30-	=30-
2.G\	.	4d\	.	0ryy	0ryy	.
.	.	4c\	.	.	.	.
.	.	(4d\	-re	.	.	.
!LO:TX:t=P:problem=kreska pseudotaktowa	!	!LO:TX:t=P:problem=kreska pseudotaktowa	!	!	!	!
4F\	-re	4B-X\)	.	.	.	.
2E,\	Te	2c\	Te	.	.	.
(4C/	vir-	(4E/	lau-	.	.	.
!LO:TX:t=P:problem=kreska pseudotaktowa	!	!LO:TX:t=P:problem=kreska pseudotaktowa	!	!	!	!
4D/)	.	4F/)	.	.	.	.
=31-	=31-	=31-	=31-	=31-	=31-	=31-
(4E\	-go	2G/	-da-	0ryy	0ryy	.
4D\)	.	.	.	.	.	.
(4E\	sa-	2.c\	.	.	.	.
4C/)	.	.	.	.	.	.
4F\	-cra-	.	.	.	.	.
4G\	.	4B-X\	.	.	.	.
4A\	.	4A\	.	.	.	.
!LO:TX:t=P:problem=kreska pseudotaktowa	!	!LO:TX:t=P:problem=kreska pseudotaktowa	!	!	!	!
4G\	.	4B-\	.	.	.	.
=32-	=32-	=32-	=32-	=32-	=32-	=32-
2.F\	.	4c\	.	0ryy	0ryy	.
.	.	4B-X\	.	.	.	.
.	.	(4c\	-re	.	.	.
!LO:TX:t=P:problem=kreska pseudotaktowa	!	!LO:TX:t=P:problem=kreska pseudotaktowa	!	!	!	!
4E\	.	4A\)	.	.	.	.
2D,/	ta	2d,\	Te	.	.	.
4BB-X/	lau-	(4D/	lau-	.	.	.
!LO:TX:t=P:problem=kreska pseudotaktowa	!	!	!	!	!	!
4C/	.	4E/)	.	.	.	.
=33-	=33-	=33-	=33-	=33-	=33-	=33-
4D/	da-	2F/	-da-	0ryy	0ryy	.
4C/	.	.	.	.	.	.
!	!	!LO:TX:t=P:problem=kreska pseudotaktowa	!	!	!	!
4D/	.	2F/	-re	.	.	.
4BB-X/	.	.	.	.	.	.
2C/	.	2c,\	Te	.	.	.
!	!	!LO:TX:t=P:problem=kreska pseudotaktowa	!	!	!	!
2F\	-re	2c\	lau-	.	.	.
=34-	=34-	=34-	=34-	=34-	=34-	=34-
!LO:TX:t=P:problem=kreska pseudotaktowa	!	!	!	!	!	!
1C,	Te	2c\	-da-	0ryy	0ryy	.
.	.	2c\	-re	.	.	.
2F\	Te	2c,\	Te	.	.	.
*	*	*custos:d	*	*	*	*
!LO:TX:t=P:problem=kreska pseudotaktowa	!	!LO:TX:t=P:problem=kreska pseudotaktowa	!	!	!	!
2F\	lau-	2c\	Te	.	.	.
!LO:LB:g=original	!	!LO:LB:g=original	!	!	!	!
=35-	=35-	=35-	=35-	=35-	=35-	=35-
!LO:TX:t=P:problem=kreska pseudotaktowa	!	!	!	!	!	!
1F	-da-	2d\	Vir-	0ryy	0ryy	.
.	.	4c\	-go	.	.	.
.	.	4B-X\	sa-	.	.	.
!LO:TX:t=P:problem=kreska pseudotaktowa	!	!	!	!	!	!
1F,	-re	2c\	-cra-	.	.	.
!	!	!LO:TX:t=P:problem=kreska pseudotaktowa	!	!	!	!
.	.	2c\	-ta	.	.	.
=36-	=36-	=36-	=36-	=36-	=36-	=36-
!LO:TX:t=P:problem=kreska pseudotaktowa	!	!	!	!	!	!
00r	.	2r	.	0ryy	0ryy	.
.	.	2d\	Dig-	.	.	.
.	.	2d\	-na-	.	.	.
!	!	!LO:TX:t=P:problem=kreska pseudotaktowa	!	!	!	!
.	.	2d\	-re	.	.	.
=37-	=37-	=37-	=37-	=37-	=37-	=37-
.	.	2c\	me	0ryy	0ryy	.
.	.	4A\	lau-	.	.	.
!	!	!LO:TX:t=P:problem=kreska pseudotaktowa	!	!	!	!
.	.	4Bn\	.	.	.	.
.	.	(4c\	-da-	.	.	.
.	.	4B\)	.	.	.	.
.	.	(4c\	-re	.	.	.
.	.	4A\)	.	.	.	.
=38-	=38-	=38-	=38-	=38-	=38-	=38-
1D	Dig-	4D/	Te	0ryy	0ryy	.
.	.	4E/	.	.	.	.
.	.	4F/	.	.	.	.
!	!	!LO:TX:t=P:problem=kreska pseudotaktowa	!	!	!	!
.	.	4G/	.	.	.	.
!	!	!LO:TX:t=P:problem=kreska pseudotaktowa	!	!	!	!
2D/	-na-	[<1A	.	.	.	.
!LO:TX:t=P:problem=kreska pseudotaktowa	!	!	!	!	!	!
2D/	-re	.	.	.	.	.
=39-	=39-	=39-	=39-	=39-	=39-	=39-
2C#X/	me	4A]	.	0ryy	0ryy	.
.	.	4B\	.	.	.	.
4AA/	lau-	4c#X\	.	.	.	.
!LO:TX:t=P:problem=kreska pseudotaktowa	!	!	!	!	!	!
4BBny/	.	4d\	.	.	.	.
!	!	!LO:TX:t=P:problem=kreska pseudotaktowa	!	!	!	!
(4C#X/	-da-	[<1e	.	.	.	.
4BB/)	.	.	.	.	.	.
(4C#/	-re	.	.	.	.	.
!LO:TX:t=P:problem=kreska pseudotaktowa	!	!	!	!	!	!
4AA/)	.	.	.	.	.	.
=40-	=40-	=40-	=40-	=40-	=40-	=40-
2D,\	Te	2e]	.	0ryy	0ryy	.
(4D\	vir-	4d\	.	.	.	.
!LO:TX:t=P:problem=kreska pseudotaktowa	!	!LO:TX:t=P:problem=kreska pseudotaktowa	!	!	!	!
4E\)	.	4c#X\	.	.	.	.
(4F\	-go	1d	lau-	.	.	.
4E\)	.	.	.	.	.	.
(4F\	sa-	.	.	.	.	.
!LO:TX:t=P:problem=kreska pseudotaktowa	!	!	!	!	!	!
4D\)	.	.	.	.	.	.
=41-	=41-	=41-	=41-	=41-	=41-	=41-
!	!	!LO:TX:t=P:problem=kreska pseudotaktowa	!	!	!	!
2.A\	-cra-	1e	-da-	0ryy	0ryy	.
!LO:TX:t=P:problem=kreska pseudotaktowa	!	!	!	!	!	!
4G\	.	.	.	.	.	.
4F\	.	2e,\	-re	.	.	.
4E\	.	.	.	.	.	.
!LO:TX:t=P:problem=kreska pseudotaktowa	!	!	!	!	!	!
[<2F\	.	4F/	lau-	.	.	.
*	*	*custos:A	*	*	*	*
!	!	!LO:TX:t=P:problem=kreska pseudotaktowa	!	!	!	!
.	.	4G/	.	.	.	.
!	!	!LO:LB:g=original	!	!	!	!
=42-	=42-	=42-	=42-	=42-	=42-	=42-
!LO:N:xstem:cue	!	!	!	!	!	!
4F\]	.	2A\	-da-	0ryy	0ryy	.
4E\	.	.	.	.	.	.
!	!	!LO:TX:t=P:problem=kreska pseudotaktowa	!	!	!	!
4D/	.	[<2d\	.	.	.	.
4C#X/	.	.	.	.	.	.
!	!	!LO:N:xstem:cue	!	!	!	!
2D,/	-ta	4d]	.	.	.	.
.	.	4e\	.	.	.	.
!LO:TX:t=P:problem=kreska pseudotaktowa	!	!LO:TX:t=P:problem=kreska pseudotaktowa	!	!	!	!
2D/	sa-	2f\	.	.	.	.
=43-	=43-	=43-	=43-	=43-	=43-	=43-
!LO:TX:t=P:problem=kreska pseudotaktowa	!	!	!	!	!	!
[<1AA	-cra-	1.e	.	0ryy	0ryy	.
1AA]	.	.	.	.	.	.
!	!	!LO:TX:t=P:problem=kreska pseudotaktowa	!	!	!	!
.	.	2e\	-re	.	.	.
=44-	=44-	=44-	=44-	=44-	=44-	=44-
0Dl;	-ta.	0dl;	Te.	0ryy	0ryy	.
!LO:LB:g=original	!	!	!	!	!	!
=45||	=45||	=45||	=45||	=45||	=45||	=45||
*M2/1	*	*M2/1	*	*	*	*
*met(C|)	*	*met(C|)	*	*	*	*
00r	.	0r	.	0ryy	0ryy	.
=46-	=46-	=46-	=46-	=46-	=46-	=46-
!	!	!LO:TX:t=P:problem=kreska pseudotaktowa	!	!	!	!
.	.	1r	.	0ryy	0ryy	.
.	.	2A\	con-	.	.	.
.	.	2A\	-tra	.	.	.
=47-	=47-	=47-	=47-	=47-	=47-	=47-
!LO:TX:t=P:problem=kreska pseudotaktowa	!	!	!	!	!	!
0r	.	2B-X\	hos-	0ryy	0ryy	.
!	!	!LO:TX:t=P:problem=kreska pseudotaktowa	!	!	!	!
.	.	2B-\	-tes	.	.	.
*	*	*	*ij	*	*	*
.	.	2Bn\	con-	.	.	.
.	.	2B\	-tra	.	.	.
=48-	=48-	=48-	=48-	=48-	=48-	=48-
2r	.	2c\	hos-	0ryy	0ryy	.
!LO:TX:t=P:problem=kreska pseudotaktowa	!	!LO:TX:t=P:problem=kreska pseudotaktowa	!	!	!	!
2A\	Da	2c\	-tes	.	.	.
*	*	*	*Xij	*	*	*
2G\	mi-	2c#X\	con-	.	.	.
4E\	-hi	2c#\	-tra	.	.	.
!LO:TX:t=P:problem=kreska pseudotaktowa	!	!	!	!	!	!
4E\	Vir-	.	.	.	.	.
=49-	=49-	=49-	=49-	=49-	=49-	=49-
1F	-tu-	2d\	hos-	0ryy	0ryy	.
!	!	!LO:TX:t=P:problem=kreska pseudotaktowa	!	!	!	!
.	.	2d\	-tes	.	.	.
2E,\	-tem	(2d\	Tu-	.	.	.
!LO:TX:t=P:problem=kreska pseudotaktowa	!	!	!	!	!	!
[<2A\	Vir-	2c#X\)	.	.	.	.
=50-	=50-	=50-	=50-	=50-	=50-	=50-
!	!	!LO:TX:t=P:problem=kreska pseudotaktowa	!	!	!	!
2A]	.	1d	-os.	0ryy	0ryy	.
2G#X\	.	.	.	.	.	.
!	!	!LO:TX:a:t=6	!	!	!	!
1A	-tu-	00r	.	.	.	.
=51-	=51-	=51-	=51-	=51-	=51-	=51-
!LO:TX:t=P:problem=kreska pseudotaktowa	!	!	!	!	!	!
1E,	-tem	.	.	0ryy	0ryy	.
!LO:TX:t=P:problem=kreska pseudotaktowa	!	!	!	!	!	!
0r	.	.	.	.	.	.
=52-	=52-	=52-	=52-	=52-	=52-	=52-
.	.	.	.	0ryy	0ryy	.
!	!	!LO:TX:t=P:problem=kreska pseudotaktowa	!	!	!	!
2E\	con-	0r	.	.	.	.
!LO:TX:t=P:problem=kreska pseudotaktowa	!	!	!	!	!	!
2E\	-tra	.	.	.	.	.
=53-	=53-	=53-	=53-	=53-	=53-	=53-
2F\	hos-	.	.	0ryy	0ryy	.
!LO:TX:t=P:problem=kreska pseudotaktowa	!	!	!	!	!	!
2F\	-tes	.	.	.	.	.
*	*ij	*	*	*	*	*
!	!	!LO:PB:g=original	!	!	!	!
2F#X\	con-	4d\	da	.	.	.
.	.	4A\	mi-	.	.	.
!LO:TX:t=P:problem=kreska pseudotaktowa	!	!	!	!	!	!
2F#\	-tra	4d\	-hi	.	.	.
!	!	!LO:TX:t=P:problem=kreska pseudotaktowa	!	!	!	!
.	.	4cny\	Vir-	.	.	.
=54-	=54-	=54-	=54-	=54-	=54-	=54-
2Gny\	hos-	2B-X\	-tu-	0ryy	0ryy	.
!LO:TX:t=P:problem=kreska pseudotaktowa	!	!LO:TX:t=P:problem=kreska pseudotaktowa	!	!	!	!
2G\	-tes	2B-\	-tem	.	.	.
*	*Xij	*	*ij	*	*	*
2G#X\	con-	4en\	da	.	.	.
.	.	4Bn\	mi-	.	.	.
!LO:TX:t=P:problem=kreska pseudotaktowa	!	!	!	!	!	!
2G#\	-tra	4e\	-hi	.	.	.
.	.	4d\	Vir-	.	.	.
=55-	=55-	=55-	=55-	=55-	=55-	=55-
2A\	hos-	2c\	-tu-	0ryy	0ryy	.
!LO:TX:t=P:problem=kreska pseudotaktowa	!	!LO:TX:t=P:problem=kreska pseudotaktowa	!	!	!	!
2A\	-tes	2c\	-tem	.	.	.
*	*	*	*Xij	*	*	*
!	!	!LO:TX:t=P:problem=kreska pseudotaktowa	!	!	!	!
2E\	con-	0r	.	.	.	.
!LO:TX:t=P:problem=kreska pseudotaktowa	!	!	!	!	!	!
2E\	-tra	.	.	.	.	.
=56-	=56-	=56-	=56-	=56-	=56-	=56-
2.Fny\	hos-	.	.	0ryy	0ryy	.
*custos:A	*	*	*	*	*	*
!LO:TX:t=P:problem=kreska pseudotaktowa	!	!	!	!	!	!
4Gny\	-tes	.	.	.	.	.
!LO:LB:g=original	!	!	!	!	!	!
2A\	tu-	1e	Da	.	.	.
2AA/	.	.	.	.	.	.
=57-	=57-	=57-	=57-	=57-	=57-	=57-
!LO:TX:t=P:problem=kreska pseudotaktowa	!	!	!	!	!	!
1D	-os.	2d\	mi-	0ryy	0ryy	.
.	.	4B\	-hi	.	.	.
!	!	!LO:TX:t=P:problem=kreska pseudotaktowa	!	!	!	!
.	.	4B\	vir-	.	.	.
!LO:TX:t=P:problem=kreska pseudotaktowa	!	!	!	!	!	!
0r	.	1c	-tu-	.	.	.
=58-	=58-	=58-	=58-	=58-	=58-	=58-
.	.	2B\	-tem	0ryy	0ryy	.
.	.	2c#X\	Vit-	.	.	.
1D	Da	1d	-tu-	.	.	.
=59-	=59-	=59-	=59-	=59-	=59-	=59-
!	!	!LO:TX:t=P:problem=kreska pseudotaktowa	!	!	!	!
2C/	mi-	1e	.	0ryy	1ryy	.
4AA/	-hi	.	.	.	.	.
!LO:TX:t=P:problem=kreska pseudotaktowa	!	!	!	!	!	!
4AA/	Vir-	.	.	.	.	.
*	*	*	*	*	*2\right	*
1BB-X	-tu-	2d,\	-tem	.	2g\	hos-
!	!	!	!	!	!LO:TX:t=P:problem=kreska pseudotaktowa	!
.	.	2G/	Vir-	.	2g\	-tes
=60-	=60-	=60-	=60-	=60-	=60-	=60-
!LO:TX:t=P:problem=kreska pseudotaktowa	!	!	!	!	!	!
1AA,	-tem	2cny\	-tu-	0ryy	1a	tu-
.	.	1d	.	.	.	.
!	!	!	!	!	!LO:TX:t=P:problem=kreska pseudotaktowa	!
2AA/	con-	.	.	.	2a\	-os
!	!	!LO:TX:t=P:problem=kreska pseudotaktowa	!	!	!	!
2AA/	-tra	2c#X\	.	.	2r	.
=61-	=61-	=61-	=61-	=61-	=61-	=61-
*	*	*custos:G	*	*	*	*
!	!	!LO:TX:t=P:problem=kreska pseudotaktowa	!	!	!	!
!	!	!	!	!	!LO:TX:t=P:problem=kreska pseudotaktowa	!
2BB-X/	hos-	1d	-tem	0ryy	1r	.
!LO:TX:t=P:problem=kreska pseudotaktowa	!	!	!	!	!	!
2BB-/	-tes	.	.	.	.	.
*	*ij	*	*	*	*	*
!	!	!LO:LB:g=original	!	!	!	!
2BBn/	con-	2G/	con-	.	2dd\	con-
!LO:TX:t=P:problem=kreska pseudotaktowa	!	!	!	!	!LO:TX:t=P:problem=kreska pseudotaktowa	!
2BB/	-tra	2G/	-tra	.	2dd\	-tra
=62-	=62-	=62-	=62-	=62-	=62-	=62-
2C/	hos-	2cny\	hos-	0ryy	2g/	hos-
!LO:TX:t=P:problem=kreska pseudotaktowa	!	!	!	!	!LO:TX:t=P:problem=kreska pseudotaktowa	!
2C/	-tes	2c\	-tes	.	2g/	-tes
*	*Xij	*	*	*	*	*ij
2C#X/	con-	1A	tu-	.	2a\	con-
!	!	!	!	!	!LO:TX:t=P:problem=kreska pseudotaktowa	!
2C#/	-tra	.	.	.	2a\	-tra
=63-	=63-	=63-	=63-	=63-	=63-	=63-
!	!	!LO:TX:t=P:problem=kreska pseudotaktowa	!	!	!	!
2D\	hos-	1A	-os.	0ryy	2dd\	hos-
!LO:TX:t=P:problem=kreska pseudotaktowa	!	!	!	!	!LO:TX:t=P:problem=kreska pseudotaktowa	!
2AA/	-tes	.	.	.	2cc\	-tes
*	*	*	*	*	*	*Xij
!	!	!LO:TX:t=P:problem=kreska pseudotaktowa	!	!	!	!
1E	tu-	1r	.	.	1bn	tu-
=64-	=64-	=64-	=64-	=64-	=64-	=64-
2AA/	-os.	1A	Da	0ryy	2a\	-os.
!LO:TX:t=P:problem=kreska pseudotaktowa	!	!	!	!	!LO:TX:t=P:problem=kreska pseudotaktowa	!
2rC	.	.	.	.	2r	.
!LO:TX:t=P:problem=kreska pseudotaktowa	!	!	!	!	!LO:TX:t=P:problem=kreska pseudotaktowa	!
1r	.	2G/	mi-	.	0r	.
.	.	4E/	-hi	.	.	.
!	!	!LO:TX:t=P:problem=kreska pseudotaktowa	!	!	!	!
.	.	4E/	Vir-	.	.	.
=65-	=65-	=65-	=65-	=65-	=65-	=65-
1A	Da	1F	-tu-	0ryy	.	.
!	!	!	!	!	!LO:TX:t=P:problem=kreska pseudotaktowa	!
2G\	mi-	2E,/	-tem	.	1ee	Da
!	!	!LO:TX:t=P:problem=kreska pseudotaktowa	!	!	!	!
4E\	-hi	2G/	Vir-	.	.	.
!LO:TX:t=P:problem=kreska pseudotaktowa	!	!	!	!	!	!
4E\	vir-	.	.	.	.	.
=66-	=66-	=66-	=66-	=66-	=66-	=66-
4F\	-tu-	2A/	-tu-	0ryy	2dd\	mi-
4F\	-tem	.	.	.	.	.
*custos:G	*	*	*	*	*	*
!LO:TX:t=P:problem=kreska pseudotaktowa	!	!	!	!	!	!
[<2G\	con-	2G/	.	.	4b\	-hi
.	.	.	.	.	4b\	vir-
!LO:LB:g=original	!	!	!	!	!	!
!LO:TX:a:t=P:problem=brak zakończenia ligatury	!	!LO:TX:t=P:problem=kreska pseudotaktowa	!	!	!	!
2G]	.	1A	.	.	4cc#X\	-tu-
.	.	.	.	.	4cc#\	-tem
!LO:TX:t=P:problem=kreska pseudotaktowa	!	!	!	!	!LO:TX:t=P:problem=kreska pseudotaktowa	!
2F\	-tra	.	.	.	[<2dd\	con-
=67-	=67-	=67-	=67-	=67-	=67-	=67-
2E\	ho-	2G,/	-tem	0ryy	2dd\]	.
!LO:TX:t=P:problem=kreska pseudotaktowa	!	!LO:TX:t=P:problem=kreska pseudotaktowa	!	!	!LO:TX:t=P:problem=kreska pseudotaktowa	!
[<2A\	.	2c\	con-	.	2ccn\	-tra
2A]	.	2d\	-tra	.	4b-X\	hos-
.	.	.	.	.	4b-\	-tes
!LO:TX:t=P:problem=kreska pseudotaktowa	!	!LO:TX:t=P:problem=kreska pseudotaktowa	!	!	!LO:TX:t=P:problem=kreska pseudotaktowa	!
[<2G\	.	2e\	ho-	.	2b-\	tu-
=68-	=68-	=68-	=68-	=68-	=68-	=68-
2G]	.	2c#X\	-stes	0ryy	2a\	-os.
*	*	*	*	*	*custos:e	*
!	!	!LO:TX:t=P:problem=kreska pseudotaktowa	!	!	!LO:TX:t=P:problem=kreska pseudotaktowa	!
2F\	-stes	[<2d\	tu-	.	2r	.
!	!	!	!	!	!LO:LB:g=original	!
1E	tu-	2d]	.	.	2e/	con-
.	.	2c#X\	.	.	2e/	-tra
=69-	=69-	=69-	=69-	=69-	=69-	=69-
!LO:TX:t=P:problem=kreska pseudotaktowa	!	!LO:TX:t=P:problem=kreska pseudotaktowa	!	!	!	!
1D	-os	1d	-os.	0ryy	2fn/	hos-
!	!	!	!	!	!LO:TX:t=P:problem=kreska pseudotaktowa	!
.	.	.	.	.	2f/	-tes
*	*	*	*	*	*	*ij
!	!	!LO:TX:t=P:problem=kreska pseudotaktowa	!	!	!	!
00r	.	00r	.	.	2f#X/	con-
!	!	!	!	!	!LO:TX:t=P:problem=kreska pseudotaktowa	!
.	.	.	.	.	2f#/	-tra
=70-	=70-	=70-	=70-	=70-	=70-	=70-
.	.	.	.	0ryy	2g\	hos-
!	!	!	!	!	!LO:TX:t=P:problem=kreska pseudotaktowa	!
.	.	.	.	.	2g\	-tes
*	*	*	*	*	*	*Xij
.	.	.	.	.	2g#X\	con-
!	!	!	!	!	!LO:TX:t=P:problem=kreska pseudotaktowa	!
.	.	.	.	.	2g#\	-tra
=71-	=71-	=71-	=71-	=71-	=71-	=71-
.	.	.	.	0ryy	2a\	hos-
!	!	!	!	!	!LO:TX:t=P:problem=kreska pseudotaktowa	!
.	.	.	.	.	2a\	-tes
!LO:TX:t=P:problem=kreska pseudotaktowa	!	!LO:LB:g=original	!	!	!	!
0r	.	2E/	con-	.	2gn/	tu-
!	!	!	!	!	!LO:TX:t=P:problem=kreska pseudotaktowa	!
.	.	2E/	-tra	.	2g/	-os
=72-	=72-	=72-	=72-	=72-	=72-	=72-
.	.	2F/	hos-	0ryy	2r	.
!	!	!LO:TX:t=P:problem=kreska pseudotaktowa	!	!	!LO:TX:t=P:problem=kreska pseudotaktowa	!
.	.	2F/	-tes	.	[<2dd\	con-
*	*	*	*ij	*	*	*
2AA/	con-	2F#X/	con-	.	2dd\]	.
2AA/	-tra	2F#/	-tra	.	2ccn\	-tra
=73-	=73-	=73-	=73-	=73-	=73-	=73-
!	!	!	!	!	!LO:TX:t=P:problem=kreska pseudotaktowa	!
2BB-X/	hos-	2G/	hos-	0ryy	[<1dd	ho-
!LO:TX:t=P:problem=kreska pseudotaktowa	!	!LO:TX:t=P:problem=kreska pseudotaktowa	!	!	!	!
2BB-/	-tes	2G/	-tes	.	.	.
*	*ij	*	*Xij	*	*	*
!	!	!	!	!	!LO:TX:t=P:problem=kreska pseudotaktowa	!
2BBn/	con-	2G#X/	con-	.	1dd_<	.
2BB/	-tra	2G#/	-tra	.	.	.
=74-	=74-	=74-	=74-	=74-	=74-	=74-
2C/	hos-	2A\	hos-	0ryy	2dd]	.
!LO:TX:t=P:problem=kreska pseudotaktowa	!	!LO:TX:t=P:problem=kreska pseudotaktowa	!	!	!	!
2C/	-tes	2A\	-tes	.	4cc\	.
*	*Xij	*	*	*	*	*
!	!	!	!	!	!LO:TX:t=P:problem=kreska pseudotaktowa	!
!	!	!	!	!	!LO:TX:a:t=P:problem=♭ above	!
.	.	.	.	.	4b-X\	.
!	!	!	!	!	!LO:TX:t=P:problem=kreska pseudotaktowa	!
2C#X/	con-	1A	hos-	.	[<1a	.
2C#/	-tra	.	.	.	.	.
=75-	=75-	=75-	=75-	=75-	=75-	=75-
2D/	hos-	1A	-tes	0ryy	4a]	.
.	.	.	.	.	4a\	-stes
!LO:TX:t=P:problem=kreska pseudotaktowa	!	!	!	!	!LO:TX:t=P:problem=kreska pseudotaktowa	!
2BB-X/	-tes	.	.	.	[<2dd\	tu-
1AA	tu-	1A	tu-	.	2dd\]	.
!	!	!	!	!	!LO:TX:t=P:problem=kreska pseudotaktowa	!
.	.	.	.	.	2cc#X\	.
=76-	=76-	=76-	=76-	=76-	=76-	=76-
!LO:TX:t=P:problem=kreska pseudotaktowa	!	!	!	!	!	!
1D,	-os	2A/	-os	0ryy	2dd,\	-os
*	*	*	*	*	*custos:b	*
!	!	!LO:TX:t=P:problem=kreska pseudotaktowa	!	!	!LO:TX:t=P:problem=kreska pseudotaktowa	!
.	.	2r	.	.	[<2b-X\	con-
!	!	!LO:TX:t=P:problem=kreska pseudotaktowa	!	!	!LO:LB:g=original	!
2G\	con-	1r	.	.	2b-X]	.
!	!	!	!	!	!LO:TX:t=P:problem=kreska pseudotaktowa	!
2G\	-tra	.	.	.	2b-\	-tra
=77-	=77-	=77-	=77-	=77-	=77-	=77-
2G#X\	hos-	4en\	con-	0ryy	2bn\	hos-
.	.	4e\	-tra	.	.	.
!	!	!	!	!	!LO:TX:t=P:problem=kreska pseudotaktowa	!
2G#\	-tes	4d\	hos-	.	2b\	-tes
!	!	!LO:TX:t=P:problem=kreska pseudotaktowa	!	!	!	!
.	.	4d\	-tes	.	.	.
1A	tu-	2d\	tu-	.	1a	tu-
!	!	!LO:TX:t=P:problem=kreska pseudotaktowa	!	!	!	!
.	.	2c#X\	.	.	.	.
=78-	=78-	=78-	=78-	=78-	=78-	=78-
0Dl;	-os.	0dl;	-os.	0ryy	0al;	-os.
==	==	==	==	==	==	==
*-	*-	*-	*-	*-	*-	*-
!!!system-decoration: [s1,s2,s3,s4]
!!!RDF**kern: < = below
!!!RDF**kern: l = terminal long
!!!ENC: Marta Lawrence
!!!END: 2021-03-19
!!!ENC: Berenika Jozajtis
!!!END: 2021-03-05
